svg/color/aqua.svg

<?xml version="1.0" encoding="UTF-8" ?>
<!DOCTYPE svg PUBLIC "-//W3C//DTD SVG 1.1//EN" "http://www.w3.org/Graphics/SVG/1.1/DTD/svg11.dtd">
<svg width="250pt" height="250pt" viewBox="0 0 250 250" version="1.1" xmlns="http://www.w3.org/2000/svg">
<g id="#fdfdfdff">
<path fill="#fdfdfd" opacity="1.00" d=" M 0.00 0.00 L 250.00 0.00 L 250.00 250.00 L 0.00 250.00 L 0.00 0.00 M 74.46 26.48 C 65.76 34.45 57.79 43.59 53.30 54.63 C 48.82 56.20 44.64 58.97 40.55 61.47 C 31.45 68.66 23.04 77.10 17.34 87.28 C 7.92 103.67 4.86 123.54 8.89 142.00 C 11.77 154.63 17.01 167.34 26.75 176.23 C 32.59 181.69 37.58 188.27 44.66 192.23 C 48.25 194.38 52.00 196.31 55.87 197.78 C 55.52 198.15 54.82 198.88 54.47 199.24 C 57.65 204.39 60.18 210.16 64.84 214.26 C 71.90 220.82 77.85 228.95 86.69 233.27 C 107.29 244.99 133.26 246.20 155.04 237.01 C 173.31 229.15 188.48 214.17 196.47 195.95 L 197.79 195.90 C 206.34 192.05 213.95 186.24 220.30 179.36 C 231.31 168.13 238.60 153.41 241.13 137.91 C 244.31 118.44 239.87 97.72 228.57 81.50 C 221.44 71.72 212.38 63.14 201.73 57.30 C 199.73 56.08 197.10 55.70 195.63 53.75 L 195.63 53.75 C 189.85 40.66 179.91 29.82 168.44 21.44 C 157.01 13.89 143.68 9.19 130.01 8.16 C 110.06 6.83 89.71 13.54 74.46 26.48 Z" />
<path fill="#fdfdfd" opacity="1.00" d=" M 107.00 91.00 C 115.82 86.54 126.30 85.18 135.80 88.23 C 147.62 91.49 157.47 100.84 161.53 112.38 C 164.57 120.46 164.47 129.50 161.99 137.72 C 158.49 147.61 151.16 156.13 141.59 160.55 C 132.80 165.18 122.17 165.45 112.77 162.73 C 96.60 157.67 84.92 141.06 85.94 124.09 C 86.17 119.73 87.25 115.48 87.68 111.15 C 88.02 110.87 88.69 110.31 89.03 110.03 C 92.82 101.98 99.19 95.26 107.00 91.00 Z" />
</g>
<g id="#03265bff">
<path fill="#03265b" opacity="1.00" d=" M 74.46 26.48 C 89.71 13.54 110.06 6.83 130.01 8.16 C 143.68 9.19 157.01 13.89 168.44 21.44 C 179.91 29.82 189.85 40.66 195.63 53.75 C 192.63 53.67 190.01 51.40 187.01 50.97 C 173.44 46.96 158.71 46.55 144.97 50.09 C 116.34 57.26 92.70 81.96 87.68 111.15 C 87.25 115.48 86.17 119.73 85.94 124.09 C 84.92 141.06 96.60 157.67 112.77 162.73 C 99.24 161.57 86.66 154.93 75.95 146.84 C 63.55 137.00 54.19 123.32 49.86 108.06 C 44.70 90.54 46.28 71.44 53.30 54.63 C 57.79 43.59 65.76 34.45 74.46 26.48 Z" />
</g>
<g id="#b6bdceff">
<path fill="#b6bdce" opacity="1.00" d=" M 144.97 50.09 C 158.71 46.55 173.44 46.96 187.01 50.97 C 190.01 51.40 192.63 53.67 195.63 53.75 L 195.63 53.75 C 197.10 55.70 199.73 56.08 201.73 57.30 C 212.38 63.14 221.44 71.72 228.57 81.50 C 239.87 97.72 244.31 118.44 241.13 137.91 C 238.60 153.41 231.31 168.13 220.30 179.36 C 213.95 186.24 206.34 192.05 197.79 195.90 L 196.47 195.95 C 201.19 184.20 203.66 171.41 202.45 158.74 C 201.08 138.84 191.51 119.62 176.38 106.62 C 165.32 96.22 150.73 90.25 135.80 88.23 C 126.30 85.18 115.82 86.54 107.00 91.00 C 99.19 95.26 92.82 101.98 89.03 110.03 C 88.69 110.31 88.02 110.87 87.68 111.15 C 92.70 81.96 116.34 57.26 144.97 50.09 Z" />
</g>
<g id="#009fc8ff">
<path fill="#009fc8" opacity="1.00" d=" M 40.55 61.47 C 44.64 58.97 48.82 56.20 53.30 54.63 C 46.28 71.44 44.70 90.54 49.86 108.06 C 54.19 123.32 63.55 137.00 75.95 146.84 C 86.66 154.93 99.24 161.57 112.77 162.73 C 122.17 165.45 132.80 165.18 141.59 160.55 C 151.16 156.13 158.49 147.61 161.99 137.72 C 159.15 154.62 150.82 170.63 138.16 182.25 C 117.44 201.89 85.36 208.86 58.62 198.50 C 57.93 198.32 56.56 197.96 55.87 197.78 C 52.00 196.31 48.25 194.38 44.66 192.23 C 37.58 188.27 32.59 181.69 26.75 176.23 C 17.01 167.34 11.77 154.63 8.89 142.00 C 4.86 123.54 7.92 103.67 17.34 87.28 C 23.04 77.10 31.45 68.66 40.55 61.47 Z" />
</g>
<g id="#f7941eff">
<path fill="#f7941e" opacity="1.00" d=" M 135.80 88.23 C 150.73 90.25 165.32 96.22 176.38 106.62 C 191.51 119.62 201.08 138.84 202.45 158.74 C 203.66 171.41 201.19 184.20 196.47 195.95 C 188.48 214.17 173.31 229.15 155.04 237.01 C 133.26 246.20 107.29 244.99 86.69 233.27 C 77.85 228.95 71.90 220.82 64.84 214.26 C 60.18 210.16 57.65 204.39 54.47 199.24 C 54.82 198.88 55.52 198.15 55.87 197.78 C 56.56 197.96 57.93 198.32 58.62 198.50 C 85.36 208.86 117.44 201.89 138.16 182.25 C 150.82 170.63 159.15 154.62 161.99 137.72 C 164.47 129.50 164.57 120.46 161.53 112.38 C 157.47 100.84 147.62 91.49 135.80 88.23 Z" />
</g>
</svg>

<?xml version="1.0" encoding="utf-8"?>
<!-- Generator: Adobe Illustrator 26.0.3, SVG Export Plug-In . SVG Version: 6.00 Build 0)  -->
<svg version="1.1" id="Layer_1" xmlns="http://www.w3.org/2000/svg" xmlns:xlink="http://www.w3.org/1999/xlink" x="0px" y="0px"
	 viewBox="0 0 250 250" style="enable-background:new 0 0 250 250;" xml:space="preserve">
<style type="text/css">
	.st0{fill:#FDFDFD;}
	.st1{fill:#03265B;}
	.st2{fill:#B6BDCE;}
	.st3{fill:#009FC8;}
	.st4{fill:#F7941E;}
</style>
<g id="_x23_fdfdfdff">
	<path class="st0" d="M107,91c8.8-4.5,19.3-5.8,28.8-2.8c11.8,3.3,21.7,12.6,25.7,24.1c3,8.1,2.9,17.1,0.5,25.3
		c-3.5,9.9-10.8,18.4-20.4,22.8c-8.8,4.6-19.4,4.9-28.8,2.2c-16.2-5.1-27.8-21.7-26.8-38.6c0.2-4.4,1.3-8.6,1.7-12.9
		c0.3-0.3,1-0.8,1.3-1.1C92.8,102,99.2,95.3,107,91z"/>
</g>
<g id="_x23_03265bff">
	<path class="st1" d="M74.5,26.5C89.7,13.5,110.1,6.8,130,8.2c13.7,1,27,5.7,38.4,13.3c11.5,8.4,21.4,19.2,27.2,32.3
		c-3-0.1-5.6-2.3-8.6-2.8c-13.6-4-28.3-4.4-42-0.9c-28.6,7.2-52.3,31.9-57.3,61.1c-0.4,4.3-1.5,8.6-1.7,12.9
		c-1,17,10.7,33.6,26.8,38.6c-13.5-1.2-26.1-7.8-36.8-15.9c-12.4-9.8-21.8-23.5-26.1-38.8c-5.2-17.5-3.6-36.6,3.4-53.4
		C57.8,43.6,65.8,34.5,74.5,26.5z"/>
</g>
<g id="_x23_b6bdceff">
	<path class="st2" d="M145,50.1c13.7-3.5,28.5-3.1,42,0.9c3,0.4,5.6,2.7,8.6,2.8l0,0c1.5,2,4.1,2.3,6.1,3.5
		c10.7,5.8,19.7,14.4,26.8,24.2c11.3,16.2,15.7,36.9,12.6,56.4c-2.5,15.5-9.8,30.2-20.8,41.4c-6.4,6.9-14,12.7-22.5,16.5l-1.3,0.1
		c4.7-11.8,7.2-24.5,6-37.2c-1.4-19.9-10.9-39.1-26.1-52.1c-11.1-10.4-25.7-16.4-40.6-18.4c-9.5-3.1-20-1.7-28.8,2.8
		c-7.8,4.3-14.2,11-18,19c-0.3,0.3-1,0.8-1.3,1.1C92.7,82,116.3,57.3,145,50.1z"/>
</g>
<g id="_x23_009fc8ff">
	<path class="st3" d="M40.5,61.5c4.1-2.5,8.3-5.3,12.8-6.8c-7,16.8-8.6,35.9-3.4,53.4c4.3,15.3,13.7,28.9,26.1,38.8
		c10.7,8.1,23.3,14.7,36.8,15.9c9.4,2.7,20,2.4,28.8-2.2c9.6-4.4,16.9-12.9,20.4-22.8c-2.8,16.9-11.2,32.9-23.8,44.5
		c-20.7,19.6-52.8,26.6-79.5,16.2c-0.7-0.2-2.1-0.5-2.8-0.7c-3.9-1.5-7.6-3.4-11.2-5.6c-7.1-4-12.1-10.5-17.9-16
		c-9.7-8.9-15-21.6-17.9-34.2c-4-18.5-1-38.3,8.4-54.7C23,77.1,31.5,68.7,40.5,61.5z"/>
</g>
<g id="_x23_f7941eff">
	<path class="st4" d="M135.8,88.2c14.9,2,29.5,8,40.6,18.4c15.1,13,24.7,32.2,26.1,52.1c1.2,12.7-1.3,25.5-6,37.2
		c-8,18.2-23.2,33.2-41.4,41.1c-21.8,9.2-47.7,8-68.3-3.7c-8.8-4.3-14.8-12.4-21.9-19c-4.7-4.1-7.2-9.9-10.4-15
		c0.3-0.4,1-1.1,1.4-1.5c0.7,0.2,2.1,0.5,2.8,0.7c26.7,10.4,58.8,3.4,79.5-16.2c12.7-11.6,21-27.6,23.8-44.5
		c2.5-8.2,2.6-17.3-0.5-25.3C157.5,100.8,147.6,91.5,135.8,88.2z"/>
</g>
</svg>
